X: 1
P: Hjerdafeld
R: reel
C: Shetland, as played by Willie Hunter "Leaving Lerwick Harbour"
C: arr. T. Traub 6-27-2007
M: 4/4
K: G
ge|"G"dB B/B/B AGAB|G2 BG "C"AG E2|"G"DEGA BGAB|"C"cABG A2 ge|"G"dB B/B/B AGAB|G2 BG "C"AG E2|"G"DEGA BG B2|"D"AcBG G2 :|
"B7"B2|"Em"efge f/g/a gf|"C"gage "G"dBAG|"G"DEGA BGAB|"Am"cABG "D"A2 "B7"B2|"Em"efge f/g/a gf|"C"gage "G"dBAG|"G"DEGA BG B2|"D"AcBA "G"G2 ||
"B7"B2|"Em"efge f/g/a gf|"C"gage "G"dBAG|"G"DEGA BGAB|"Am"cABG "D"A2 ge|"G"dB B/B/B AGAB|G2 BG "C"AG E2|"G"DEGA BG B2|"D"AcBG G2 |]
